packages/match-logos/mono/svg/lightspeed.svg

<svg fill="none" height="46" viewBox="0 0 199 46" width="199" xmlns="http://www.w3.org/2000/svg" xmlns:xlink="http://www.w3.org/1999/xlink"><clipPath id="a"><path d="m0 0h198.618v46h-198.618z"/></clipPath><g clip-path="url(#a)" fill="#1f304c"><path d="m42.647 11.21h4.0598v23.9613h-4.0598z"/><path d="m52.1412 15.5955c1.3163 0 2.3834-1.0671 2.3834-2.3835 0-1.3163-1.0671-2.3834-2.3834-2.3834s-2.3834 1.0671-2.3834 2.3834c0 1.3164 1.0671 2.3835 2.3834 2.3835z"/><path d="m50.0913 18.5271h4.0995v16.6442h-4.0995zm14.8487-.4211c-4.6397 0-8.4055 3.2653-8.4055 8.4452 0 5.18 3.2653 8.3659 8.4452 8.3659 2.0498 0 4.2266 1.0487 4.2266 3.3447s-1.8431 3.599-4.2266 3.599c-2.3834 0-4.3457-1.4222-4.3457-3.599h-4.0995c0 4.4729 3.599 7.4442 8.4452 7.4442 4.8066 0 8.3182-2.8442 8.3182-7.4442 0-2.1292-.6674-4.1392-3.4322-5.5216 2.7171-1.2553 3.5116-4.1392 3.5116-6.2287.008-5.1402-3.7976-8.4055-8.4373-8.4055zm.0397 13.4266c-2.3834 0-4.3457-2.0497-4.3457-4.9734 0-2.884 1.9623-5.0211 4.3457-5.0211 2.3835 0 4.3061 2.1769 4.3061 5.0211 0 2.8839-1.9624 4.9734-4.3061 4.9734zm20.2829-13.4266c-1.8829 0-3.6784.5879-5.1879 2.4708v-9.4066h-4.0995v23.9614h4.0995v-8.4532c0-2.4709 1.6764-4.5127 4.0995-4.5127 2.1769 0 3.7658 1.295 3.7658 4.3061v8.6518h4.0995v-8.9458c.0318-4.8939-2.0577-8.0718-6.7769-8.0718zm16.7634 14.2211c-.5 0-.922-.1669-1.168-.5005-.246-.3337-.373-.8342-.373-1.589v-8.199h3.305l.373-3.5513h-3.639v-4.5602l-4.1387.4607v4.1393h-3.1382v3.5513h3.1382v8.2784c0 1.716.421 3.011 1.2155 3.885.7945.8739 2.01 1.3347 3.5512 1.3347.707 0 1.382-.0874 2.09-.294.707-.2066 1.334-.5005 1.882-.8819l-1.422-2.6376c-.548.3972-1.128.5641-1.676.5641zm16.851-6.1095c-1.677-1.0487-3.639-1.1679-5.562-1.295-1.128-.0874-2.844-.3337-2.844-1.7955 0-1.0487 1.089-1.6287 3.051-1.6287 1.589 0 2.971.3734 4.139 1.4618l2.296-2.6774c-1.922-1.6763-3.885-2.1768-6.522-2.1768-3.051 0-7.063 1.3347-7.063 5.1879 0 1.5889.834 3.0508 2.216 3.885 1.55.9613 3.552 1.0884 5.268 1.295 1.168.1271 3.09.421 2.757 2.0497-.207 1.1282-1.589 1.4618-2.551 1.5016-1.048.0397-2.089-.0398-3.138-.294-1.088-.2939-1.962-.7945-2.924-1.4221l-2.089 2.6377c.127.0874.254.2065.254.2065 2.678 2.2166 6.396 2.9237 9.788 2.1769 2.55-.5879 4.727-2.4232 4.727-5.1879.08-1.5413-.421-3.0826-1.803-3.9247zm13.506-8.1116c-1.883 0-4.1.7945-5.395 2.6376l-.127-2.2563h-3.972v23.9614l4.099-.4608v-8.7869c1.168 1.7955 3.719 2.3834 5.474 2.3834 5.307 0 8.406-3.9724 8.406-8.7789.008-4.894-3.385-8.6995-8.485-8.6995zm-.334 13.9271c-2.804 0-4.679-2.5502-4.679-5.1402s1.756-5.3548 4.679-5.3548c2.971 0 4.68 2.8045 4.68 5.3548.047 2.59-1.875 5.1402-4.68 5.1402zm14.174-3.7261c.46 1.9624 2.256 3.6784 5.187 3.6784 1.502 0 3.512-.7547 4.473-1.716l2.638 2.59c-1.756 1.7955-4.64 2.6773-7.15 2.6773-5.188 0-8.946-3.4321-8.946-8.7392 0-5.021 3.885-8.6995 8.652-8.6995 5.021 0 9.2 3.4322 8.779 10.2011zm9.66-3.1302c-.46-1.9623-2.423-3.6784-4.806-3.6784-2.217 0-4.267 1.5015-4.854 3.6784zm9.327 3.1302c.461 1.9624 2.257 3.6784 5.188 3.6784 1.502 0 3.512-.7547 4.473-1.716l2.638 2.59c-1.756 1.7955-4.64 2.6773-7.15 2.6773-5.188 0-8.946-3.4321-8.946-8.7392 0-5.021 3.885-8.6995 8.652-8.6995 5.021 0 9.2 3.4322 8.779 10.2011zm9.701-3.1302c-.461-1.9623-2.423-3.6784-4.807-3.6784-2.216 0-4.266 1.5015-4.854 3.6784zm13.84 10.4076c1.883 0 4.099-.7945 5.394-2.6376l.127 2.2165h3.973v-23.9533h-4.1v9.2794c-1.168-1.7955-3.766-2.3437-5.521-2.3437-5.307 0-8.366 3.9327-8.366 8.7789 0 4.8463 3.392 8.6598 8.493 8.6598zm.294-13.9192c2.804 0 4.679 2.5503 4.679 5.1403s-1.756 5.3547-4.679 5.3547c-2.972 0-4.68-2.8045-4.68-5.3547-.008-2.59 1.875-5.1403 4.68-5.1403z"/><path d="m15.4284.381348 2.0895 3.638682c.4211.75475.4211 1.67634 0 2.42315l-12.45736 21.61762 5.89496 10.201c.9216 1.589 2.6377 2.59 4.4729 2.59 1.8353 0 3.5513-1.001 4.4729-2.59l5.895-10.201-1.5492-2.7568-6.6895 11.5834c-.4211.7547-1.2553 1.2155-2.0895 1.2155-.8818 0-1.6763-.4608-2.0894-1.2155l-5.14027-8.8266 11.58347-20.0684 2.0894 3.6387c.4211.7547.4211 1.6763 0 2.4231l-8.0718 14.0066 1.5889 2.7568 8.7789-15.2221 5.7679 9.9945c.8819 1.5492.8819 3.4321 0 4.9734l-5.8552 10.1613c-.8819 1.5492-3.6785 5.0211-8.6995 5.0211-5.0211 0-7.77792-3.4719-8.69951-5.0211l-5.839376-10.1534c-.88186542-1.5492-.88186542-3.4321 0-4.9813z"/></g></svg>

<svg width="199" height="46" viewBox="0 0 199 46" fill="none" xmlns="http://www.w3.org/2000/svg">
<g clip-path="url(#clip0)">
<path d="M15.4287 0.381317L17.5181 4.02C17.9392 4.77475 17.9392 5.69634 17.5181 6.44315L5.06079 28.0608L10.9558 38.2618C11.8774 39.8507 13.5934 40.8518 15.4287 40.8518C17.2639 40.8518 18.98 39.8507 19.9015 38.2618L25.7965 28.0608L24.2473 25.3039L17.5578 36.8874C17.1368 37.6421 16.3026 38.1029 15.4684 38.1029C14.5865 38.1029 13.792 37.6421 13.3789 36.8874L8.23868 28.0608L19.8221 7.99237L21.9116 11.6311C22.3326 12.3858 22.3326 13.3074 21.9116 14.0542L13.8397 28.0608L15.4287 30.8176L24.2076 15.5955L29.9755 25.59C30.8573 27.1392 30.8573 29.0221 29.9755 30.5634L24.1202 40.7247C23.2383 42.2739 20.4418 45.7457 15.4207 45.7457C10.3996 45.7457 7.64282 42.2739 6.72124 40.7247L0.881858 30.5713C-7.28667e-06 29.0221 -7.28667e-06 27.1392 0.881858 25.59L15.4287 0.381317Z" fill="#1F304C"/>
<path d="M42.6473 11.2099H46.7071V35.1712H42.6473V11.2099Z" fill="#1F304C"/>
<path d="M52.1412 15.5955C53.4575 15.5955 54.5246 14.5284 54.5246 13.212C54.5246 11.8957 53.4575 10.8286 52.1412 10.8286C50.8249 10.8286 49.7578 11.8957 49.7578 13.212C49.7578 14.5284 50.8249 15.5955 52.1412 15.5955Z" fill="#1F304C"/>
<path d="M50.0916 18.527H54.191V35.1713H50.0916V18.527ZM64.9403 18.106C60.3005 18.106 56.5347 21.3712 56.5347 26.5512C56.5347 31.7312 59.8 34.917 64.98 34.917C67.0297 34.917 69.2066 35.9657 69.2066 38.2618C69.2066 40.5578 67.3634 41.8607 64.98 41.8607C62.5966 41.8607 60.6342 40.4386 60.6342 38.2618H56.5347C56.5347 42.7346 60.1337 45.706 64.98 45.706C69.7865 45.706 73.2981 42.8618 73.2981 38.2618C73.2981 36.1326 72.6308 34.1225 69.866 32.7402C72.5831 31.4849 73.3776 28.601 73.3776 26.5115C73.3855 21.3712 69.58 18.106 64.9403 18.106ZM64.98 31.5326C62.5966 31.5326 60.6342 29.4828 60.6342 26.5592C60.6342 23.6752 62.5966 21.5381 64.98 21.5381C67.3634 21.5381 69.286 23.7149 69.286 26.5592C69.286 29.4431 67.3237 31.5326 64.98 31.5326ZM85.2629 18.106C83.38 18.106 81.5845 18.6939 80.075 20.5768V11.1702H75.9755V35.1315H80.075V26.6783C80.075 24.2075 81.7513 22.1657 84.1745 22.1657C86.3513 22.1657 87.9403 23.4607 87.9403 26.4718V35.1236H92.0397V26.1778C92.0715 21.2838 89.9821 18.106 85.2629 18.106ZM102.026 32.327C101.526 32.327 101.105 32.1602 100.858 31.8265C100.612 31.4928 100.485 30.9923 100.485 30.2376V22.0386H103.79L104.163 18.4873H100.525V13.927L96.3855 14.3878V18.527H93.2473V22.0783H96.3855V30.3567C96.3855 32.0728 96.8066 33.3678 97.6011 34.2417C98.3955 35.1156 99.6111 35.5764 101.152 35.5764C101.859 35.5764 102.535 35.489 103.242 35.2825C103.949 35.0759 104.577 34.782 105.125 34.4006L103.703 31.763C103.154 32.1602 102.574 32.327 102.026 32.327ZM118.877 26.2175C117.201 25.1688 115.238 25.0497 113.316 24.9225C112.188 24.8351 110.472 24.5889 110.472 23.127C110.472 22.0783 111.56 21.4984 113.522 21.4984C115.111 21.4984 116.494 21.8718 117.661 22.9602L119.958 20.2828C118.035 18.6065 116.073 18.106 113.435 18.106C110.384 18.106 106.372 19.4407 106.372 23.2939C106.372 24.8828 107.206 26.3446 108.589 27.1788C110.138 28.1402 112.14 28.2673 113.856 28.4738C115.024 28.601 116.946 28.8949 116.613 30.5236C116.406 31.6517 115.024 31.9854 114.063 32.0251C113.014 32.0649 111.973 31.9854 110.924 31.7312C109.836 31.4372 108.962 30.9367 108.001 30.3091L105.911 32.9467C106.038 33.0341 106.165 33.1533 106.165 33.1533C108.843 35.3699 112.561 36.077 115.953 35.3302C118.504 34.7422 120.68 32.907 120.68 30.1422C120.76 28.601 120.259 27.0597 118.877 26.2175ZM132.383 18.106C130.5 18.106 128.284 18.9004 126.989 20.7436L126.862 18.4873H122.889V42.4486L126.989 41.9878V33.201C128.156 34.9965 130.707 35.5844 132.463 35.5844C137.77 35.5844 140.868 31.612 140.868 26.8054C140.876 21.9115 137.484 18.106 132.383 18.106ZM132.049 32.0331C129.245 32.0331 127.37 29.4828 127.37 26.8928C127.37 24.3029 129.126 21.5381 132.049 21.5381C135.021 21.5381 136.729 24.3426 136.729 26.8928C136.777 29.4828 134.854 32.0331 132.049 32.0331ZM146.223 28.307C146.684 30.2694 148.479 31.9854 151.411 31.9854C152.912 31.9854 154.922 31.2307 155.884 30.2694L158.521 32.8593C156.765 34.6548 153.882 35.5367 151.371 35.5367C146.183 35.5367 142.425 32.1046 142.425 26.7975C142.425 21.7764 146.31 18.098 151.077 18.098C156.098 18.098 160.277 21.5301 159.856 28.2991L146.223 28.307ZM155.884 25.1768C155.423 23.2144 153.46 21.4984 151.077 21.4984C148.86 21.4984 146.811 22.9999 146.223 25.1768H155.884ZM165.211 28.307C165.672 30.2694 167.467 31.9854 170.399 31.9854C171.9 31.9854 173.91 31.2307 174.872 30.2694L177.509 32.8593C175.753 34.6548 172.869 35.5367 170.359 35.5367C165.171 35.5367 161.413 32.1046 161.413 26.7975C161.413 21.7764 165.298 18.098 170.065 18.098C175.086 18.098 179.265 21.5301 178.844 28.2991L165.211 28.307ZM174.911 25.1768C174.45 23.2144 172.488 21.4984 170.105 21.4984C167.888 21.4984 165.838 22.9999 165.25 25.1768H174.911ZM188.751 35.5844C190.634 35.5844 192.85 34.7899 194.145 32.9467L194.273 35.1633H198.245V11.2099H194.145V20.4894C192.978 18.6939 190.38 18.1457 188.624 18.1457C183.317 18.1457 180.258 22.0783 180.258 26.9246C180.258 31.7709 183.65 35.5844 188.751 35.5844ZM189.045 21.6652C191.849 21.6652 193.724 24.2155 193.724 26.8054C193.724 29.3954 191.969 32.1602 189.045 32.1602C186.074 32.1602 184.365 29.3557 184.365 26.8054C184.358 24.2155 186.24 21.6652 189.045 21.6652Z" fill="#1F304C"/>
</g>
<defs>
<clipPath id="clip0">
<rect width="198.618" height="46" fill="white"/>
</clipPath>
</defs>
</svg>
